X:6
T: Der Vorwirt
N: Q0089E
O: Osteuropa, Tschechoslowakei, Oesterreich - Schlesien
R: Ballade, Mord, Grab, Auferstehen, Geist
M: 3/4
L: 1/16
K: G
D2 | G2G2B2A2G4 | A2B2G4z2
G2 | B2ded2c2B4 | ddc2B4z2
B2 | d2ded2c2B4 | c2B2A4z2
G2 | B2ded2c2B4 | d2c2B4z2

